adaptive-icons/Test-Icons--V5/editing/plus-filled-32.svg

<svg height="32" viewBox="0 0 32 32" width="32" xmlns="http://www.w3.org/2000/svg"><g fill="none" fill-rule="evenodd"><path d="m16 2.667c-7.364 0-13.333 5.969-13.333 13.333s5.969 13.333 13.333 13.333 13.333-5.969 13.333-13.333-5.969-13.333-13.333-13.333zm6.667 16h-4v4a2.67 2.67 0 0 1 -2.667 2.666 2.67 2.67 0 0 1 -2.667-2.666v-4h-4a2.67 2.67 0 0 1 -2.666-2.667 2.67 2.67 0 0 1 2.666-2.667h4v-4a2.67 2.67 0 0 1 2.667-2.666 2.67 2.67 0 0 1 2.667 2.666v4h4a2.67 2.67 0 0 1 2.666 2.667 2.67 2.67 0 0 1 -2.666 2.667z" fill="#282d37" fill-rule="nonzero"/><path d="m29.333 16c0 7.364-5.969 13.333-13.333 13.333s-13.333-5.969-13.333-13.333 5.969-13.333 13.333-13.333 13.333 5.969 13.333 13.333zm-10.666 6.667v-4h4a2.67 2.67 0 0 0 2.666-2.667 2.67 2.67 0 0 0 -2.666-2.667h-4v-4a2.67 2.67 0 0 0 -2.667-2.666 2.67 2.67 0 0 0 -2.667 2.666v4h-4a2.67 2.67 0 0 0 -2.666 2.667 2.67 2.67 0 0 0 2.666 2.667h4v4a2.67 2.67 0 0 0 2.667 2.666 2.67 2.67 0 0 0 2.667-2.666z" stroke="#282d37" stroke-linecap="round" stroke-width="2.5"/></g></svg>

<svg xmlns="http://www.w3.org/2000/svg" id="3" width="32" height="32" viewBox="0 0 32 32"><g fill="none" fill-rule="evenodd" class="page-1"><g class="plus"><path fill="#282D37" fill-rule="nonzero" d="M16 2.667C8.636 2.667 2.667 8.636 2.667 16S8.636 29.333 16 29.333 29.333 23.364 29.333 16 23.364 2.667 16 2.667Zm6.667 16h-4v4A2.67 2.67 0 0 1 16 25.333a2.67 2.67 0 0 1-2.667-2.666v-4h-4A2.67 2.67 0 0 1 6.667 16a2.67 2.67 0 0 1 2.666-2.667h4v-4A2.67 2.67 0 0 1 16 6.667a2.67 2.67 0 0 1 2.667 2.666v4h4A2.67 2.67 0 0 1 25.333 16a2.67 2.67 0 0 1-2.666 2.667Z" class="fill"/><path stroke="#282D37" stroke-linecap="round" stroke-width="2.5" d="M29.333 16c0 7.364-5.969 13.333-13.333 13.333S2.667 23.364 2.667 16 8.636 2.667 16 2.667 29.333 8.636 29.333 16Zm-10.666 6.667v-4h4A2.67 2.67 0 0 0 25.333 16a2.67 2.67 0 0 0-2.666-2.667h-4v-4A2.67 2.67 0 0 0 16 6.667a2.67 2.67 0 0 0-2.667 2.666v4h-4A2.67 2.67 0 0 0 6.667 16a2.67 2.67 0 0 0 2.666 2.667h4v4A2.67 2.67 0 0 0 16 25.333a2.67 2.67 0 0 0 2.667-2.666Z" class="stroke"/></g></g></svg>
